X:1
T:Title
L:1/8
M:3/4
I:linebreak $
K:G
V:1 treble nm="Voice"
V:1
"G" z D GA Bd | BA GA Bd |"C" gf ed cB |"Am" AG E4- |"G" ED GA Bd | BA GA Bd |"C" gf ed cd | %7
"D" d6 ::"C" z E FG ed |"D" F6- |"Em" FG AB gf |"D" e2 (d4 |"C" d)E FG ed |"G" G6- |1 %14
"Am" Gd cB cd |"D" A6 :|2"Am" Gg fe fa |"D" d6 |] %18
